client/public/static/images/ic/ic_colaborate.svg

<svg fill="none" height="48" viewBox="0 0 56 48" width="56" xmlns="http://www.w3.org/2000/svg" xmlns:xlink="http://www.w3.org/1999/xlink"><linearGradient id="a" gradientUnits="userSpaceOnUse" x1=".36556" x2="54.5266" y1="10.0248" y2="16.142"><stop offset="0" stop-color="#938eff"/><stop offset="1" stop-color="#b0acfb"/></linearGradient><clipPath id="b"><path d="m0 0h56.0007v47.9992h-56.0007z"/></clipPath><g clip-path="url(#b)"><rect fill="url(#a)" height="34.2784" opacity=".4" rx="5" transform="matrix(.999773 -.102905 .0983729 .986376 0 14.1878)" width="52.6406"/><g stroke="#1a202c" stroke-linecap="round" stroke-linejoin="round"><path d="m44.1667 20.0001h-6.6667" stroke-width="2"/><path d="m42.5 23.9999 3.3333-3.9998-3.3333-4.3335" stroke-width="2"/><path d="m20.6713 18.9999c2.7653 0 5.0071-2.2386 5.0071-5s-2.2418-4.99999-5.0071-4.99999c-2.7654 0-5.0072 2.23859-5.0072 4.99999s2.2418 5 5.0072 5z" fill="#fafdff" stroke-width="3"/></g><path d="m37.5052 34.0001v-3.4072c-.0007-1.5098-.3285-2.9765-.9318-4.1698s-1.448-2.0456-2.4015-2.423" fill="#fafdff"/><path d="m37.5052 34.0001v-3.4072c-.0007-1.5098-.3285-2.9765-.9318-4.1698s-1.448-2.0456-2.4015-2.423" stroke="#1a202c" stroke-linecap="round" stroke-linejoin="round" stroke-width="3"/><path d="m30 9.00153c.9523.28426 1.7963.92993 2.399 1.83527.6028.9053.93 2.0187.93 3.1647 0 1.1461-.3272 2.2595-.93 3.1648-.6027.9053-1.4467 1.551-2.399 1.8352" stroke="#1a202c" stroke-linecap="round" stroke-linejoin="round" stroke-width="3"/><path d="m31 34v-5.1219c0-1.2937-.59-2.5345-1.6402-3.4493s-2.4746-1.4287-3.9598-1.4287c0 0-1.6838 1.4287-5.0444 1.4287-2.52 0-4.7556-1.4287-4.7556-1.4287-1.4852 0-2.9096.5139-3.9598 1.4287s-1.6402 2.1556-1.6402 3.4493v5.1219" fill="#fafdff"/><path d="m31 34v-5.1219c0-1.2937-.59-2.5345-1.6402-3.4493s-2.4746-1.4287-3.9598-1.4287c0 0-1.6838 1.4287-5.0444 1.4287-2.52 0-4.7556-1.4287-4.7556-1.4287-1.4852 0-2.9096.5139-3.9598 1.4287s-1.6402 2.1556-1.6402 3.4493v5.1219z" stroke="#1a202c" stroke-linecap="round" stroke-linejoin="round" stroke-width="3"/></g></svg>

<svg width="56" height="48" viewBox="0 0 56 48" fill="none" xmlns="http://www.w3.org/2000/svg">
<g clip-path="url(#clip0)">
<rect opacity="0.4" width="52.6406" height="34.2784" rx="5" transform="matrix(0.999773 -0.102905 0.0983729 0.986376 0 14.1878)" fill="url(#paint0_linear)"/>
<path d="M44.1667 20.0001H37.5" stroke="#1A202C" stroke-width="2" stroke-linecap="round" stroke-linejoin="round"/>
<path d="M42.5 23.9999L45.8333 20.0001L42.5 15.6666" stroke="#1A202C" stroke-width="2" stroke-linecap="round" stroke-linejoin="round"/>
<path d="M20.6713 18.9999C23.4366 18.9999 25.6784 16.7613 25.6784 13.9999C25.6784 11.2385 23.4366 8.99991 20.6713 8.99991C17.9059 8.99991 15.6641 11.2385 15.6641 13.9999C15.6641 16.7613 17.9059 18.9999 20.6713 18.9999Z" fill="#FAFDFF" stroke="#1A202C" stroke-width="3" stroke-linecap="round" stroke-linejoin="round"/>
<path d="M37.5052 34.0001V30.5929C37.5045 29.0831 37.1767 27.6164 36.5734 26.4231C35.9701 25.2298 35.1254 24.3775 34.1719 24.0001" fill="#FAFDFF"/>
<path d="M37.5052 34.0001V30.5929C37.5045 29.0831 37.1767 27.6164 36.5734 26.4231C35.9701 25.2298 35.1254 24.3775 34.1719 24.0001" stroke="#1A202C" stroke-width="3" stroke-linecap="round" stroke-linejoin="round"/>
<path d="M30 9.00153C30.9523 9.28579 31.7963 9.93146 32.399 10.8368C33.0018 11.7421 33.329 12.8555 33.329 14.0015C33.329 15.1476 33.0018 16.261 32.399 17.1663C31.7963 18.0716 30.9523 18.7173 30 19.0015" stroke="#1A202C" stroke-width="3" stroke-linecap="round" stroke-linejoin="round"/>
<path d="M31 34V28.8781C31 27.5844 30.41 26.3436 29.3598 25.4288C28.3096 24.514 26.8852 24.0001 25.4 24.0001C25.4 24.0001 23.7162 25.4288 20.3556 25.4288C17.8356 25.4288 15.6 24.0001 15.6 24.0001C14.1148 24.0001 12.6904 24.514 11.6402 25.4288C10.59 26.3436 10 27.5844 10 28.8781V34" fill="#FAFDFF"/>
<path d="M31 34V28.8781C31 27.5844 30.41 26.3436 29.3598 25.4288C28.3096 24.514 26.8852 24.0001 25.4 24.0001C25.4 24.0001 23.7162 25.4288 20.3556 25.4288C17.8356 25.4288 15.6 24.0001 15.6 24.0001C14.1148 24.0001 12.6904 24.514 11.6402 25.4288C10.59 26.3436 10 27.5844 10 28.8781V34H31Z" stroke="#1A202C" stroke-width="3" stroke-linecap="round" stroke-linejoin="round"/>
</g>
<defs>
<linearGradient id="paint0_linear" x1="0.36556" y1="10.0248" x2="54.5266" y2="16.142" gradientUnits="userSpaceOnUse">
<stop stop-color="#938EFF"/>
<stop offset="1" stop-color="#B0ACFB"/>
</linearGradient>
<clipPath id="clip0">
<rect width="56.0007" height="47.9992" fill="white"/>
</clipPath>
</defs>
</svg>
